X:219
T:Orange Ribbands. VWMLa.219
%%VWML:Anon2-3049-p138-0
F:http://www.vwml.org/record/Anon2/3049/p138
S:Anon. MS, late 18thC, Vaughan Williams Mem. Library
O:England;Yorkshire
Z:vmp/efdss.Simon Wilson. Reviewed PJH 2008.
M:C
L:1/8
Q:2/4=70
K:G
G/A/|BGGB cAAc|BGFG A/G/F/E/ DG/A/|\
BGGB cAAc|Bge^cd2:|
B/c/|dBGg ecea|fdef g/f/g/a/ gB/c/|\
dBBB geea|fdef g2fe|
"P"dBBB eccc|dBBB A/G/F/E/ DB/c/|\
dBBB e/g/f/a/ g/e/d/c/|BAGF G2G,2|]
T:Any Thing. VWMLa.220
R:Country-dance
S:Anon. MS, late 18thC, Vaughan Williams Mem. Library
O:England;Yorkshire
Z:vmp/efdss.Simon Wilson. Reviewed PJH 2008.
M:2/4
L:1/8
Q:1/4=140
K:Bb
(dB).B.B|(cA).A.A|B>cdd|(ec)c2|\
(dB).B.B|(cA).A.A|B>cdB|{d}c2B2:|
|:F2GA|B2cd|ecBA|B/A/B/c/B2|\
F2GA|B2cd|ecBA|{c}B2B2:|
|:f2ga|({ga}b2)ag|gfed|dcBA|\
B>cdd|ecc2|dB A/B/c/A/|B2B,2:|
